X:1
T:Pruen, 77.77
T:Pruen, 77.77
T:Frederick Arthur Gore-Ouseley, 1872
T:Public Domain Courtesy of the Cyber Hymnal™
C:Frederick Arthur Gore-Ouseley, 1872
Z:Public Domain
Z:Courtesy of the Cyber Hymnal™
%%score ( 1 2 ) ( 3 4 )
L:1/8
Q:1/4=107
M:4/4
K:C
V:1 treble 
V:2 treble 
V:3 bass 
V:4 bass 
V:1
 [CE]2 [DG]2 c2 z x3 | [EG]2 [DF]2 [CE]4 x | D2 [DG]2 G3 z A | [GB]2 [^FA]2 G4 x | %4
 [EG]2 [^CA]2 [DF]2 [FA]2 | G3 z F [CE]4 | [Ec]2 [DB]2 [CA]2 [_B,G]2 x | [A,F]2 [=CE]2 C4 |] %8
V:2
 x4 C3 A2 F | x9 | D2 (EG) G2 x3 | x4 G4 x | x8 | D2 B,2 x5 | x9 | x4 C4 |] %8
V:3
 [C,G,]2 [B,,G,]2 [A,,A,]2 [F,C]2 x2 | C3 z B, [C,C]4 | [B,,G,]2 [G,,B,]2 [C,C]2 [A,,E]2 x | %3
 D3 z C [G,B,]4 | [^C,A,]2 [A,,A,]2 A,2 [=C,C] x | [B,,D]2 [G,,G,]2 [C,G,]4 x | %6
 A,3 z ^G, [F,A,]2 [^C,E,]2 | [D,F,]2 [G,,F,]2 [C,E,]4 |] %8
V:4
 x10 | G,2 G,,2 x5 | x9 | D,2 D,2 x5 | x4 D,3 B, | x9 | A,,2 E,2 x5 | x8 |] %8

